public/images/home/ionic.svg

<svg width="111" height="37" viewBox="0 0 111 37" fill="none" xmlns="http://www.w3.org/2000/svg">
<g clip-path="url(#clip0)">
<path d="M18.7336 10.068C17.0449 10.068 15.3941 10.5625 13.9899 11.489C12.5858 12.4156 11.4914 13.7324 10.8451 15.2732C10.1989 16.8139 10.0298 18.5093 10.3592 20.145C10.6887 21.7806 11.5019 23.283 12.696 24.4623C13.8901 25.6415 15.4116 26.4446 17.0679 26.7699C18.7242 27.0953 20.441 26.9283 22.0012 26.2901C23.5614 25.6519 24.8949 24.5711 25.8331 23.1845C26.7713 21.7979 27.2721 20.1676 27.2721 18.5C27.2694 16.2645 26.3689 14.1213 24.7682 12.5406C23.1676 10.9599 20.9973 10.0707 18.7336 10.068V10.068Z" fill="#478AFF"/>
<path d="M30.9933 10.8156C33.1414 10.8156 34.8828 9.09592 34.8828 6.97462C34.8828 4.85332 33.1414 3.13367 30.9933 3.13367C28.8453 3.13367 27.1039 4.85332 27.1039 6.97462C27.1039 9.09592 28.8453 10.8156 30.9933 10.8156Z" fill="#478AFF"/>
<path d="M35.7825 10.8355L35.6193 10.4831L35.3645 10.7751C34.7268 11.4896 33.9205 12.0377 33.017 12.3708L32.7621 12.4614L32.8641 12.7131C34.2377 15.9753 34.4116 19.6094 33.3555 22.9849C32.2995 26.3604 30.0802 29.2643 27.0827 31.1928C24.0851 33.1213 20.4985 33.9528 16.9452 33.5428C13.3918 33.1329 10.0958 31.5075 7.62915 28.9486C5.16247 26.3897 3.68073 23.0588 3.441 19.5338C3.20127 16.0088 4.21868 12.5122 6.31671 9.65051C8.41474 6.78887 11.461 4.74282 14.927 3.86734C18.3929 2.99186 22.0599 3.3422 25.2916 4.85757L25.5312 4.97084L25.6357 4.71914C26.0166 3.84425 26.6102 3.07567 27.3638 2.48152L27.6697 2.22982L27.3205 2.05111C24.6677 0.68956 21.7207 -0.0177145 18.731 -0.0103186C14.6833 -0.00974457 10.7446 1.2853 7.50442 3.681C4.26423 6.0767 1.8968 9.44421 0.756445 13.2795C-0.383908 17.1149 -0.235856 21.2118 1.17844 24.9571C2.59274 28.7024 5.19722 31.8947 8.6021 34.0562C12.007 36.2177 16.0291 37.2322 20.0666 36.9478C24.1041 36.6635 27.9397 35.0956 30.9995 32.4787C34.0593 29.8619 36.1786 26.3369 37.0404 22.4313C37.9021 18.5257 37.4599 14.4495 35.7799 10.8128L35.7825 10.8355Z" fill="#478AFF"/>
<path d="M51.06 10.4456H47.1093V26.5544H51.06V10.4456Z" fill="#478AFF"/>
<path d="M93.6937 10.4456H89.7431V26.5544H93.6937V10.4456Z" fill="#478AFF"/>
<path d="M80.6209 10.068C77.8427 10.068 75.6966 11.7217 75.2047 12.1772L74.9498 10.4455H71.6619V26.5544H75.6125V16.801C75.6125 14.8981 78.2429 13.3225 80.1672 13.3225C82.0916 13.3225 83.5367 15.1398 83.5367 17.3044V26.5544H87.4874V17.6895C87.4746 13.466 85.6293 10.068 80.6209 10.068Z" fill="#478AFF"/>
<path d="M104.065 23.6271C101.095 23.6271 99.1329 21.3316 99.1329 18.5C99.1329 15.6683 101.095 13.3728 104.065 13.3728C106.598 13.3728 108.143 15.7967 108.143 15.7967L111.005 13.9064C110.177 12.6479 109.221 11.8928 107.916 11.1125C106.79 10.4378 105.499 10.0768 104.182 10.068C99.2399 10.068 95.4651 13.7328 95.4422 18.5C95.4651 23.2672 99.2399 26.9319 104.182 26.9319C105.494 26.9204 106.779 26.5595 107.901 25.8874C109.206 25.1096 110.161 24.352 110.99 23.0935L108.128 21.2032C108.128 21.2032 106.598 23.6271 104.065 23.6271Z" fill="#478AFF"/>
<path d="M61.3622 10.0681C60.2414 10.0503 59.1283 10.2539 58.0883 10.667C57.0483 11.0801 56.1024 11.6943 55.3062 12.4735C54.51 13.2527 53.8796 14.1813 53.452 15.2045C53.0243 16.2278 52.8081 17.3251 52.8161 18.4321C52.8161 23.0005 56.2774 26.932 61.4208 26.932C66.0775 26.932 69.893 23.4082 69.893 18.5303C69.893 12.945 65.4556 10.0681 61.3622 10.0681ZM61.4106 13.3805C63.86 13.3805 66.1794 15.3437 66.1794 18.5076C66.1794 21.6035 63.8702 23.6222 61.4004 23.6222C58.686 23.6222 56.5577 21.4676 56.5577 18.4824C56.5577 15.5627 58.6707 13.3805 61.4234 13.3805H61.4106Z" fill="#478AFF"/>
</g>
<defs>
<clipPath id="clip0">
<rect width="111" height="37" fill="white"/>
</clipPath>
</defs>
</svg>

<svg xmlns="http://www.w3.org/2000/svg" width="111" height="37" fill="none" xmlns:v="https://vecta.io/nano"><g clip-path="url(#A)" fill="#478aff"><path d="M18.734 10.068a8.62 8.62 0 0 0-4.744 1.421 8.45 8.45 0 0 0-3.145 3.784c-.647 1.541-.815 3.236-.486 4.872a8.4 8.4 0 0 0 2.337 4.317 8.58 8.58 0 0 0 4.372 2.308 8.64 8.64 0 0 0 4.933-.48c1.56-.638 2.894-1.719 3.832-3.106a8.36 8.36 0 0 0 1.439-4.684 8.39 8.39 0 0 0-2.504-5.959c-1.601-1.581-3.771-2.47-6.035-2.473h0zm12.259.748c2.148 0 3.89-1.72 3.89-3.841s-1.741-3.841-3.89-3.841-3.889 1.72-3.889 3.841 1.741 3.841 3.889 3.841zm4.79.02l-.163-.352-.255.292c-.638.714-1.444 1.263-2.347 1.596l-.255.091.102.252a14.95 14.95 0 0 1 .491 10.272c-1.056 3.375-3.275 6.279-6.273 8.208a15.47 15.47 0 0 1-10.137 2.35c-3.553-.41-6.849-2.035-9.316-4.594s-3.948-5.89-4.188-9.415a14.99 14.99 0 0 1 2.876-9.883c2.098-2.862 5.144-4.908 8.61-5.783a15.5 15.5 0 0 1 10.365.99l.24.113.105-.252a5.8 5.8 0 0 1 1.728-2.238l.306-.252-.349-.179C24.668.69 21.721-.018 18.731-.01c-4.048.001-7.986 1.296-11.227 3.691S1.897 9.444.756 13.28s-.992 7.932.422 11.678a18.55 18.55 0 0 0 7.424 9.099 18.92 18.92 0 0 0 11.465 2.892A18.86 18.86 0 0 0 31 32.479a18.46 18.46 0 0 0 6.041-10.047 18.29 18.29 0 0 0-1.261-11.619l.003.023zm15.277-.39h-3.951v16.109h3.951V10.446zm42.634 0h-3.951v16.109h3.951V10.446zm-13.073-.378c-2.778 0-4.924 1.654-5.416 2.109l-.255-1.732h-3.288v16.109h3.951v-9.753c0-1.903 2.63-3.478 4.555-3.478s3.37 1.817 3.37 3.982v9.25h3.951V17.69c-.013-4.223-1.858-7.621-6.866-7.621zm23.444 13.559c-2.97 0-4.932-2.295-4.932-5.127s1.962-5.127 4.932-5.127c2.533 0 4.078 2.424 4.078 2.424l2.862-1.89c-.828-1.258-1.784-2.014-3.089-2.794-1.126-.675-2.417-1.036-3.734-1.045-4.942 0-8.717 3.665-8.74 8.432.023 4.767 3.798 8.432 8.74 8.432a7.36 7.36 0 0 0 3.719-1.044c1.305-.778 2.26-1.535 3.089-2.794l-2.862-1.89s-1.53 2.424-4.063 2.424zM61.362 10.068c-1.121-.018-2.234.186-3.274.599a8.42 8.42 0 0 0-2.782 1.806 8.3 8.3 0 0 0-1.854 2.731 8.21 8.21 0 0 0-.636 3.228c0 4.568 3.461 8.5 8.605 8.5 4.657 0 8.472-3.524 8.472-8.402 0-5.585-4.437-8.462-8.531-8.462zm.048 3.312c2.449 0 4.769 1.963 4.769 5.127 0 3.096-2.309 5.115-4.779 5.115-2.714 0-4.843-2.155-4.843-5.14 0-2.92 2.113-5.102 4.866-5.102h-.013z"/></g><defs><clipPath id="A"><path fill="#fff" d="M0 0h111v37H0z"/></clipPath></defs></svg>
